!!!COM: Bach, Johann Sebastian
!!!CDT: 1685/3//-1750/7/28/
!!!OTL@@DE: Wo Gott der Herr nicht bei uns haelt
!!!AGN: 4-Part Chorale
!!!SCT: BH 336
!!!SCT: BWV 258
**harm	**root	**kern	**kern	**kern	**kern
!	!	!bass	!tenor	!alto	!soprno
*	*Iorgan	*Iorgan	*Iorgan	*Iorgan	*Iorgan
*	*	*clefF4	*clefF2	*clefG2	*clefG2
*M4/4	*M4/4	*M4/4	*M4/4	*M4/4	*M4/4
*met(c)	*met(c)	*met(c)	*met(c)	*met(c)	*met(c)
*MM60	*MM60	*MM60	*MM60	*MM60	*MM60
*k[f#c#g#d#a#e#b#]	*k[f#c#g#d#a#e#b#]	*k[f#c#g#d#a#e#b#]	*k[f#c#g#d#a#e#b#]	*k[f#c#g#d#a#e#b#]	*k[f#c#g#d#a#e#b#]
*a#:	*a#:	*a#:	*a#:	*a#:	*a#:
*>[A,A,B]	*>[A,A,B]	*>[A,A,B]	*>[A,A,B]	*>[A,A,B]	*>[A,A,B]
*>A	*>A	*>A	*>A	*>A	*>A
i	4BB	4A#	4c#	8e#	4cc#
.	.	.	.	8f#	.
=1	=1	=1	=1	=1	=1
IIIb	4DD	4E#	4c#	4g#	4cc#
VI	4GG	4F#	4c#	4f#	8a#
.	.	.	.	.	8b#
IIIb	4DD	8E#	4c#	4g#	8cc#
.	.	8D#	.	.	8dd#
III	4DD	4C#	4c#	4g#	4ee#
=2	=2	=2	=2	=2	=2
V7b/-VII	4EE	4F##	4c#	4a#	4dd#
V7/III	4AA	4G#	4B#	8g#	4dd#
.	.	.	.	8f#	.
III;	4DD;	4C#;	4G#;	4e#;	4cc#;
viiob/-VII	4GG#	4AA#	4A#	4f##	4cc#
=3	=3	=3	=3	=3	=3
-VII	4AA	4GG#	4d#	4g#	4b#
iv	4EE	4D#	4d#	4f#	8a#
.	.	.	.	.	8b#
i	4BB	8A#	8c#	4e#	4cc#
.	.	8G#	8B#	.	.
iv	8EE	8F#	4A#	8d#	8dd#
ic	8BB	8E#	.	8e#	8cc#
=4	=4	=4	=4	=4	=4
ii7Db	4CC#	4D#	4A#	4f#	2b#
V7	4FF#	4E#	8G##	4e#	.
.	.	.	8d#	.	.
i	4BB	4AA#;	4c#;	4e#;	4a#;
=:|!	=:|!	=:|!	=:|!	=:|!	=:|!
*>B	*>B	*>B	*>B	*>B	*>B
-VIIb	4AA	4BB#	4G#	4g#	4dd#
=5	=5	=5	=5	=5	=5
III	2DD	8C#	4G#	4g#	4ee#
.	.	8D#	.	.	.
.	.	8E#	8G#	4g#	4ee#
.	.	8F#	8A#	.	.
-VII	4AA	4G#	4B#	8d#	8b#
.	.	.	.	8e#	8cc#
vii7o	4AA#	4G##	4B#	4f#	4dd#
!!linebreak: 2
=6	=6	=6	=6	=6	=6
i	4BB	4A#	8c#	4e#	4cc#
.	.	.	8B#	.	.
vii7o/V	4EE#	4D##	4A#	4f##	4cc#
V	4FF#	4E#;	4e#;	4g##;	4b#;
i	4BB	8A#	4e#	4a#	4cc#
.	.	8G#	.	.	.
=7	=7	=7	=7	=7	=7
V/-VII	2EE	8F##	4A#	8a#	4dd#
.	.	8E#	.	8g#	.
.	.	4D#	4d#	4f##	8a#
.	.	.	.	.	8b#
III	4DD	8E#	8G#	4e#	4cc#
.	.	8F##	8A#	.	.
-VII	4AA	4G#	4B#	4d#	4b#
=8	=8	=8	=8	=8	=8
V7b/IV	4BB	4C##	4e#	4g#	4a#
V7/-VII	4EE	4D#	8d#	4f##	4a#
.	.	.	8c#	.	.
-VII	4AA	4GG#;	4B#;	4d#;	4g#;
viiob/-VII	4GG#	4AA#	4c#	4f##	4cc#
=9	=9	=9	=9	=9	=9
-VIIb	4AA	8BB#	4d#	4g#	4b#
.	.	8C#	.	.	.
V/-VII	4EE	4D#	4d#	8f##	8a#
.	.	.	.	8g##	8b#
i	4BB	8A#	4e#	4a#	4cc#
.	.	8G#	.	.	.
iv	8EE	8F#	4A#	8a#	8dd#
ic	8BB	8E#	.	8e#	8cc#
=10	=10	=10	=10	=10	=10
ii7Db	4CC#	4D#	4A#	4f#	2b#
V7	4FF#	4E#	4G##	8e#	.
.	.	.	.	8d#	.
i;	4BB;	4AA#;	4E#;	4c#;	4a#;
==	==	==	==	==	==
*-	*-	*-	*-	*-	*-
!!chor2scor: -l 2 -s 0.6 -o %b.pmx
!!!YEC: Copyright 2003 by Craig Stuart Sapp
!!!license: GNU General Public License (http://www.gnu.org/copyleft/gpl.html)
!!!SMA: 371 Bach Chorales, edited by Ludwig Erk, C.F. Peters
!!!PDT: 1850, 1865
!!!ONB: Harmony and Root analysis done manually by Craig Sapp
